src/assets/images/logo-grayscale.svg

<svg viewBox="0 0 835 693" fill="none" xmlns="http://www.w3.org/2000/svg">
<path d="M702.43 362.25H784.05C789.77 362.25 792.633 365.113 792.64 370.84C785.48 473.93 748.25 565.57 681 641.45C676.71 644.32 673.85 644.32 669.55 641.45L605.12 578.45C656 520.425 687.091 447.712 693.89 370.84C693.84 365.11 698.14 362.25 702.43 362.25ZM477.64 451L398.89 372.25C393.16 366.53 396.02 362.25 403.18 362.25H502C507.72 362.25 510.583 365.113 510.59 370.84C507.7 396.61 497.68 428.11 477.64 451ZM347.34 652.91C174.09 652.91 42.3401 516.91 42.3401 346.5C42.3401 176.09 174.07 40.09 347.34 40.09C416.07 40.09 483.34 63 536.34 105.95C540.64 110.25 540.64 114.55 537.77 118.84L484.77 181.84C481.9 186.14 476.17 186.14 471.88 181.84C436.08 156.07 393.13 140.32 347.31 140.32C232.8 140.32 141.16 232 141.16 346.5C141.16 461 232.8 552.68 347.34 552.68C397.45 552.68 443.27 535.5 479.07 505.43L550.66 577C497.68 624.27 426.09 652.91 347.34 652.91ZM652.34 355.09C648.04 436.7 625.13 495.41 577.88 549.82L506.29 478.23C534.93 443.86 547.82 408.07 552.11 356.52C553.54 336.52 543.52 326.45 524.91 326.45H348.77C323 326.45 317.27 345.07 334.45 362.25L450.45 478.25C421.175 501.598 384.785 514.215 347.34 514C255.7 514 182.68 441 182.68 346.48C182.68 251.96 255.68 180.39 347.34 180.39C388.86 180.39 428.95 194.71 459.02 223.34C473.34 236.23 486.23 239.09 499.11 223.34L579.3 127.41C590.75 114.53 590.75 98.78 577.86 87.32C513.43 30.07 433.25 0 347.34 0C255.443 0 167.309 36.5061 102.328 101.487C37.3463 166.469 0.840088 254.602 0.840088 346.5C0.840088 438.398 37.3463 526.531 102.328 591.513C167.309 656.494 255.443 693 347.34 693C436.11 693 517.73 660.07 577.86 605.66L656.61 683C662.34 688.72 669.5 693 676.61 693C683.72 693 689.5 690.14 696.61 683C782.52 594.22 826.91 486.84 834.07 355.11C834.07 336.5 824.07 326.47 805.43 326.47H681C663.77 326.45 652.32 336.48 652.32 355.09H652.34Z" fill="white"/>
</svg>

<svg viewBox="0 0 835 693" fill="none" xmlns="http://www.w3.org/2000/svg"><path d="M702.43 362.25h81.62c5.72 0 8.583 2.863 8.59 8.59-7.16 103.09-44.39 194.73-111.64 270.61-4.29 2.87-7.15 2.87-11.45 0l-64.43-63a363.466 363.466 0 0088.77-207.61c-.05-5.73 4.25-8.59 8.54-8.59zM477.64 451l-78.75-78.75c-5.73-5.72-2.87-10 4.29-10H502c5.72 0 8.583 2.863 8.59 8.59-2.89 25.77-12.91 57.27-32.95 80.16zm-130.3 201.91c-173.25 0-305-136-305-306.41 0-170.41 131.73-306.41 305-306.41 68.73 0 136 22.91 189 65.86 4.3 4.3 4.3 8.6 1.43 12.89l-53 63c-2.87 4.3-8.6 4.3-12.89 0-35.8-25.77-78.75-41.52-124.57-41.52-114.51 0-206.15 91.68-206.15 206.18s91.64 206.18 206.18 206.18c50.11 0 95.93-17.18 131.73-47.25L550.66 577c-52.98 47.27-124.57 75.91-203.32 75.91zm305-297.82c-4.3 81.61-27.21 140.32-74.46 194.73l-71.59-71.59c28.64-34.37 41.53-70.16 45.82-121.71 1.43-20-8.59-30.07-27.2-30.07H348.77c-25.77 0-31.5 18.62-14.32 35.8l116 116A163.86 163.86 0 01347.34 514c-91.64 0-164.66-73-164.66-167.52 0-94.52 73-166.09 164.66-166.09 41.52 0 81.61 14.32 111.68 42.95 14.32 12.89 27.21 15.75 40.09 0l80.19-95.93c11.45-12.88 11.45-28.63-1.44-40.09C513.43 30.07 433.25 0 347.34 0a346.5 346.5 0 000 693c88.77 0 170.39-32.93 230.52-87.34L656.61 683c5.73 5.72 12.89 10 20 10 7.11 0 12.89-2.86 20-10 85.91-88.78 130.3-196.16 137.46-327.89 0-18.61-10-28.64-28.64-28.64H681c-17.23-.02-28.68 10.01-28.68 28.62h.02z" fill="#fff"/></svg>
